FlatUX/src/svg/file.svg

<svg enable-background="new 0 0 256 256" viewBox="0 0 256 256" xmlns="http://www.w3.org/2000/svg"><path clip-rule="evenodd" d="m50.008 38.303s38.221-2.303 77.442-2.303c38.821 0 78.643 2.303 78.643 2.303 6.403 0 11.606 5.206 11.606 11.613 0 0 2.301 39.443 2.301 78.686 0 38.842-2.301 77.484-2.301 77.484 0 6.407-5.203 11.613-11.606 11.613 0 0-39.822 2.303-78.643 2.303-39.221 0-77.542-2.303-77.542-2.303-6.403 0-11.606-5.206-11.606-11.613 0 0-2.301-39.343-2.301-78.485 0-38.842 2.301-77.584 2.301-77.584-.001-6.509 5.202-11.714 11.706-11.714z" fill="#7f8c8d" fill-rule="evenodd"/><path d="m140.571 72h-50.285c-3.473 0-6.286 2.784-6.286 6.222v99.556c0 3.438 2.813 6.222 6.286 6.222h75.429c3.473 0 6.286-2.784 6.286-6.222v-74.667z" fill="#dadfe0"/><path d="m137.138 80 26.862 26.401v69.599h-72v-96z" fill="#bdc1c6"/><path d="m155.213 106h-12.813c-3.536 0-6.4-2.864-6.4-6.4v-12.8-12.8l32 32z" fill="#edefef"/></svg>

<svg xmlns="http://www.w3.org/2000/svg" viewBox="0 0 256 256"><path fill="#7f8c8d" fill-rule="evenodd" d="M50.008 38.303S88.229 36 127.45 36c38.821 0 78.643 2.303 78.643 2.303 6.403 0 11.606 5.206 11.606 11.613 0 0 2.301 39.443 2.301 78.686 0 38.842-2.301 77.484-2.301 77.484 0 6.407-5.203 11.613-11.606 11.613 0 0-39.822 2.303-78.643 2.303-39.221 0-77.542-2.303-77.542-2.303-6.403 0-11.606-5.206-11.606-11.613 0 0-2.301-39.343-2.301-78.485 0-38.842 2.301-77.584 2.301-77.584a11.66 11.66 0 0 1 11.706-11.714" clip-rule="evenodd"/><path fill="#dadfe0" d="M140.571 72H90.286C86.813 72 84 74.784 84 78.222v99.556c0 3.438 2.813 6.222 6.286 6.222h75.429c3.473 0 6.286-2.784 6.286-6.222v-74.667z"/><path fill="#bdc1c6" d="M137.138 80 164 106.401V176H92V80z"/><path fill="#edefef" d="M155.213 106H142.4a6.4 6.4 0 0 1-6.4-6.4V74l32 32z"/></svg>
